X:336
T: MUTTER ACH MUTTER ES HUNGERT MICH
N: E0189A
O: Europa, Mitteleuropa, Deutschland, Schoenbeck a.d. Elbe
R: erzaehlendes Volks - Lied, Sage, Familien - Geschichte
M: 3/4
L: 1/8
K: F
 | F2A2c2 | f2e2d2 | d2c2c2 | A2z4 |
c2B2B2 | G2z2G2 | d2c2c2 | A2z4 |
A2c2B2A2 | G2z2
A2c2B2A2 | G2F2E2 |
C2 | D2D2E2E2 | F2G2A2 |
A2 | A2B2c2dd | c4B4 | A8

@@@ Tune index: 3986
